X:1
T:Title
%%score { ( 1 3 ) | ( 2 4 ) }
L:1/8
M:4/4
K:Ab
V:1 treble nm="Grand Piano"
V:3 treble 
V:2 bass 
V:4 bass 
V:1
 z4 z2[Q:1/4=100] [Ec]>[DB] | [CA]2 [CE]>[DF] [CE]2 [CA]>[CB] | A2 G2 G2 G>A | %3
 B2 [Gd]>[Gd] [Ac]2 [EB]2 | [EA]6 [Ec]>[DB] | [CA]2 [CE]>[DF] [CE]2 [CA]>[CB] | A2 G2 G2 G>A | %7
 B2 c>A G2 [=DF]2 |[M:3/4] E6 |[M:1/4] E>E |[M:4/4] [Gd]2 [Fd]>[Ed] [Gd]2 d->[Ed] | %11
 c->[Ac-] [Gc-]>[Fc-] [Ec]2 [Ec]>[Ec] | [=Dc]2 [DF]>[DG] [DA]2 z z/ D/ | B6 z2 | %14
 [A,CA]2 c2 e2 E>E |[M:9/8] F2 [FA]- [FA] [Fd]2- [Fd][Af]>[Af] | %16
[M:4/4] [Ae]2 [Ge]>[Gd] [EAc]2 [DEB]2 |[M:3/4] [CEA]6 |] %18
V:2
 z4 z2 [A,,A,]>[A,,A,] | [A,,E,]2 [A,,A,]>[A,,A,] [A,,A,]2 [A,,E,]>[A,,A,] | %2
 [E,B,D]2 [E,B,D]2 [E,B,D]2 [E,B,D]>[E,F,D] | [E,G,D]2 [E,E]>[E,E] [F,E]2 [G,D]2 | %4
 [A,C]6 [A,,A,]>[A,,A,] | [A,,E,]2 [A,,A,]>[A,,A,] [A,,A,]2 [A,,E,]>[A,,A,] | %6
 [E,B,D]2 [E,B,D]2 [E,B,D]2 [E,B,D]>[F,A,C] | [E,G,E]2 [A,E]>[A,CE] [B,E]2 [B,,A,]2 | %8
[M:3/4] E,2- [E,-A,]2 [E,B,]2 |[M:1/4] [E,G,D]>[E,G,D] | %10
[M:4/4] [E,B,]2 [E,B,]>[E,B,] [E,B,]2 [E,B,]>[E,B,] | [A,,A,]2 [A,,A,]2 [A,,A,]2 [A,,A,]>[A,,A,] | %12
 [B,,A,]2 [B,,A,]>[B,,A,] [B,,F,]2 [A,B,=D]>[A,B,] | [G,B,E]2 [F,B,]2 E,>D, C,>B,, | %14
 A,,2 [A,E]2 [A,CE]2 [C,A,]>[C,A,] |[M:9/8] [D,A,D]2 [D,A,]- [D,A,] [D,A,]2- [D,A,][D,D]>[D,D] | %16
[M:4/4] [E,C]2 [E,B,]>[E,B,] E,2 E,2 |[M:3/4] A,,6 |] %18
V:3
 x8 | x8 | x8 | x8 | x8 | x8 | x8 | x8 |[M:3/4] z2 C2 D2 |[M:1/4] x2 |[M:4/4] z4 z2 F2 | E2 z2 z4 | %12
 z4 z2 F2 | z2 =D2 [G,E]2 [A,E]>[G,_DE] | x8 |[M:9/8] x9 |[M:4/4] x8 |[M:3/4] x6 |] %18
V:4
 x8 | x8 | x8 | x8 | x8 | x8 | x8 | x8 |[M:3/4] G,2 z2 z2 |[M:1/4] x2 |[M:4/4] x8 | x8 | x8 | x8 | %14
 x8 |[M:9/8] x9 |[M:4/4] x8 |[M:3/4] x6 |] %18

